X: 1
T:Grasshopper dance
R:Jig
O:Wales
P:AABBAA
M:6/8
L:1/8
K:ADor
P:A
G|c2c c2d|cBA G2G|c2c e2e|GAB c2:|!
P:B
K:DMix
|:c|e2e e2e|g2g d2d|e2e e2e|gfe d2:|!
